!!!COM: Palestrina, Giovanni Perluigi da
!!!OPR: Missa Ascendo ad Patrem
!!!OMD: Benedictus
!!!OTL: First Section
**kern	**kern	**kern	**kern
*Itenor	*Icalto	*Icant	*Icant
!Tenor	!Altus	!Cantus 2	!Cantus 1
*clefGv2	*clefG2	*clefG2	*clefG2
*k[]	*k[]	*k[]	*k[]
*C:ion	*C:ion	*C:ion	*C:ion
*M4/2	*M4/2	*M4/2	*M4/2
=1	=1	=1	=1
0r	0d	0r	1r
.	.	.	1dd
=2	=2	=2	=2
0r	1.g	0r	1.b
.	2a	.	2cc
=3	=3	=3	=3
0r	2b	0r	2dd
.	2b	.	2dd
.	1cc	.	1ee
=4	=4	=4	=4
0r	1b	0r	2dd
.	.	.	2.gg
.	2.cc	.	.
.	.	.	4ff
.	.	.	4ee
.	4b	.	4dd
=5	=5	=5	=5
0r	4a	0r	2cc
.	4g	.	.
.	4f	.	1ff
.	4g	.	.
.	4a	.	.
.	4b	.	.
.	[2cc	.	2ee
=6	=6	=6	=6
1r	2cc]	0g	1dd
.	2b	.	.
1c	2cc	.	2.ee
.	[2c	.	.
.	.	.	4dd
=7	=7	=7	=7
1.A	4c]	1.cc	4ee
.	4d	.	4ff
.	4e	.	1ee
.	4c	.	.
.	1f	.	.
2B	.	2dd	[2dd
=8	=8	=8	=8
2c	2e	2ee	4dd]
.	.	.	4cc
2c	1a	2ee	1cc
1d	.	1ff	.
.	4g	.	2b
.	4f	.	.
=9	=9	=9	=9
2.c	1g	2ee	1cc
.	.	2.gg	.
4d	.	.	.
4e	1c	.	1r
4f	.	4ff	.
2g	.	4ee	.
.	.	4dd	.
=10	=10	=10	=10
2.c	0r	2.ee	0g
4d	.	4dd	.
4e	.	2cc	.
4f	.	.	.
4g	.	2b	.
4e	.	.	.
=11	=11	=11	=11
2f	0r	2a	1.cc
2e	.	2g	.
1f	.	1a	.
.	.	.	2dd
=12	=12	=12	=12
2e	0r	2b	2ee
2c	.	1cc	2ee
1d	.	.	1ff
.	.	2b	.
=13	=13	=13	=13
1c	0g	2cc	1ee
.	.	1cc	.
1G	.	.	2dd
.	.	2b	[2gg
=14	=14	=14	=14
1.c	1.e	2.cc	4gg]
.	.	.	4ff
.	.	.	4ee
.	.	4dd	4dd
.	.	2ee	4cc
.	.	.	4b
2d	2f	2dd	2a
=15	=15	=15	=15
2e	2g	2b	2g
2e	2g	2.ee	1cc
1f	1a	.	.
.	.	8dd	.
.	.	8cc	.
.	.	2dd	4b
.	.	.	4a
=16	=16	=16	=16
2e	2g	2ee	2b
2A	2.cc	2ee	2a
4A	.	[1cc	[1ee
4B	4b	.	.
4c	2a	.	.
4d	.	.	.
=17	=17	=17	=17
0e	2g#	2cc]	0ee]
.	1a	4b	.
.	.	4a	.
.	.	1b	.
.	2g#	.	.
=18	=18	=18	=18
1A	1a	1cc#	1ee
2r	2r	2r	2r
2d	2f	2dd	2a
=19	=19	=19	=19
2.c	2.g	2.ee	2.cc
4c	4g	4ee	4cc
2c	2g	[1ee	[1cc
[2A	[2a	.	.
=20	=20	=20	=20
4A]	4a]	0ee]	1cc]
4B	4g	.	.
4c	4e	.	.
4d	4f	.	.
4e	4g	.	1r
4f	4a	.	.
4g	4b	.	.
4e	4g	.	.
=21	=21	=21	=21
2f	4a	1cc	1r
.	4b	.	.
2a	1cc	.	.
2g	.	2.dd	2r
2G	2b	.	2dd
.	.	4dd	.
=22	=22	=22	=22
2.c	1cc	2cc	2.ee
.	.	2g	.
4c	.	.	4ee
[1A	1r	2.cc	2ee
.	.	.	[2a
.	.	4cc	.
=23	=23	=23	=23
1A]	1r	2cc	4a]
.	.	.	4b
.	.	2.a	4cc
.	.	.	4dd
1r	2r	.	2.ee
.	.	4b	.
.	[2c	4cc	.
.	.	4dd	4ff
=24	=24	=24	=24
0r	4c]	4ee	2gg
.	4d	4ff	.
.	4e	4gg	2ee
.	4c	4ee	.
.	2d	2ff	2dd
.	2e	2ee	[2cc
=25	=25	=25	=25
2r	1g	2dd	2cc]
2G	.	2dd	2b
2.c	2r	2.ee	1cc
.	2g	.	.
4c	.	4ee	.
=26	=26	=26	=26
1A	2.a	2.ee	2r
.	.	.	2cc
.	4a	4dd	.
1r	2a	2cc	2ee
.	[2d	4dd	2ff
.	.	4ee	.
=27	=27	=27	=27
0r	4d]	1ff	1dd
.	4e	.	.
.	4f	.	.
.	4g	.	.
.	4a	1ee	4cc
.	4b	.	4dd
.	4cc	.	4ee
.	4a	.	4ff
=28	=28	=28	=28
1r	2b	2dd	2gg
.	2cc	1gg	2ee
2r	1a	.	2dd
2d	.	2ff#	2dd
=29	=29	=29	=29
2.e	2r	2gg	2.b
.	2g	2gg	.
4e	.	.	4b
2e	2g	2.ee	2b
[2A	2a	.	[2cc
.	.	4ee	.
=30	=30	=30	=30
4A]	2.e	1ee	4cc]
4B	.	.	4dd
4c	.	.	1ee
4d	4f	.	.
4e	4g	1r	.
4f	4a	.	.
4g	4b	.	4dd
4e	4g	.	4cc
=31	=31	=31	=31
2f	2a	2r	2dd
2g	2b	2.gg	2dd
[1c	1cc	.	2ee
.	.	4ff	.
.	.	4ee	[2gg
.	.	4dd	.
=32	=32	=32	=32
1c]	1.g	4ee	4gg]
.	.	4dd	4ff
.	.	4cc	4ee
.	.	4b	4dd
1c	.	2cc	2ee
.	2g	2cc	2ee
=33	=33	=33	=33
0G	0g	0b	0dd
*-	*-	*-	*-
!!!CDT: 1525/^1526/-1594/2/2
!!!OCY: Italia
!!!AGN: Mass (Parody)
!!!AST: renaissance, vocal
!!!ASW: Motet 1572 (Palestrina)
!!!PWK: Masses, Book 12
!!!RNB: Cadence finals: G,D
!!!YOR: Le Opere Complete, v. 29, p. 54
!!!YOO: Rome, Italy: Fratelli Scalera
!!!END: 1992//
!!!EED: John Miller
!!!YEC: Copyright 2000, John Miller
!!!YEN: United States of America
!!!YEM: Rights to all derivative electronic formats reserved.
!!!YEM: Refer to licensing agreement for further details.
!!!YEM: This file must be accompanied by the licensing agreement.
!!!YEM: A copy of the licensing agreement may be found at http://www.music-cog.ohio-state.edu/HumdrumDatabases/Palestrina/license.txt
!!!EMD: converted to Humdrum by Bret Aarden
